!!!COM: Anonymous
!!!CDT: [?]
!!!OTL@@POL: Bądź wesoła Panno czysta
!!!TXO: Polish
!!!ODT: 
!!!GTL: Hymnbook E
!!!ARL: Opactwo św. Wojciecha, Staniątki 
!!!voices:	4
**kern	**kern	**text	**kern	**text	**kern	**text
*staff4	*staff3	*staff3	*staff2	*staff2	*staff1	*staff1
*I"Organo	*I"Basso	*	*I"Tenore	*	*I"Canto	*
=1-	=1-	=1-	=1-	=1-	=1-	=1-
*clefF4	*clefF4	*	*clefGv2	*	*clefG2	*
*k[]	*k[]	*	*k[]	*	*k[]	*
*met(c|)	*met(c|)	*	*met(c|)	*	*met(c|)	*
*M2/2	*M2/2	*	*M2/2	*	*M2/2	*
1D	1D	Bądź	1d	Bądź	1a	Bądź
=2	=2	=2	=2	=2	=2	=2
2AA/	2AA/	we-	2c\	we-	2a/	we-
[2D\	[2D\	-so-	2d\	-so-	[2a/	-so-
=3	=3	=3	=3	=3	=3	=3
4D\]	4D\]	.	2.A/	-ła	4a/]	.
4E\	4E\	.	.	.	4g/	.
4F\	4F\	.	.	.	2f/	.
4G\	4G\	.	4B\	.	.	.
=4	=4	=4	=4	=4	=4	=4
!!LO: in Wydanie Narodowe there is something
2A\	2A\	-ła	2c\	Pan-	2e/	.
2D\	2D\	Pan-	2d\	.	2f/	-ła
=5	=5	=5	=5	=5	=5	=5
2G\	2G\	-no	2B\	-no	2d/	Pan-
2E\	2E\	.	2G/	.	[2g/	-no
=6	=6	=6	=6	=6	=6	=6
1D	1D	czy-	1A	czy-	2g/]	.
.	.	.	.	.	2f#/	czy-
=7	=7	=7	=7	=7	=7	=7
2GG/	2GG/	-sta	1G	-sta	2g/	-sta
2G\	2G\	Tyś	.	.	[2dd\	Tyś
=8	=8	=8	=8	=8	=8	=8
1D	1D	po-	2.d\	Tyś	4dd\]	.
.	.	.	.	.	4cc\	.
.	.	.	.	.	4b\	.
.	.	.	4c\	.	4a/	.
=9	=9	=9	=9	=9	=9	=9
2E\	2E\	-czę-	2B\	po-	2g/	po-
2F\	2F\	-ła	2A/	-czę-	2a/	.
=10	=10	=10	=10	=10	=10	=10
4G\	2.G\	Je-	1d	-ła	2.b\	-czę-
4A\	.	.	.	.	.	.
4G\	.	.	.	.	.	.
4F\	4F\	.	.	.	4a/	.
=11	=11	=11	=11	=11	=11	=11
4E\	2E\	.	1e	Je-	2g/	-ła
4D\	.	.	.	.	.	.
2C/	2C/	-zu	.	.	2cc\	Je-
=12	=12	=12	=12	=12	=12	=12
2G\	2G\	Chry-	2d\	-zu	2b\	.
2A\	2A\	.	2c\	.	[2a/	-zu
=13	=13	=13	=13	=13	=13	=13
1E	1E	-sta	1B	Chry-	2a/]	.
.	.	.	.	.	2g#/	.
=14	=14	=14	=14	=14	=14	=14
4F\	2F\	Je-	2A/	-sta	2a/	Chry-
4E\	.	.	.	.	.	.
4F\	2D\	-zu	[2d\	Je-	2f/	.
4D\	.	.	.	.	.	.
=15	=15	=15	=15	=15	=15	=15
2A\	1A	Chry-	2d\]	.	1e	.
2AA/	.	.	2c#\	-zu	.	.
=16	=16	=16	=16	=16	=16	=16
2D\	2D\	-sta	1d	Chry-	1d	-sta
[2G\	[2G\	A-	.	.	.	.
=17	=17	=17	=17	=17	=17	=17
4G\]	4G\]	.	1G	-sta	2.g/	A-
4F\	4F\	.	.	.	.	.
4E\	4E\	.	.	.	.	.
4D\	4D\	.	.	.	4f/	-nio-
=18	=18	=18	=18	=18	=18	=18
1C	1C	-nio-	2.c\	A-	2e/	-łe-
.	.	.	.	.	2g/	-meś
.	.	.	4B\	-nio-	.	.
=19	=19	=19	=19	=19	=19	=19
2D\	2D\	-łe-	2A/	-łe-	2f/	.
2E\	2E\	-meś	2G/	-meś	[2e/	po-
=20	=20	=20	=20	=20	=20	=20
2C#/	2C#/	po-	2A/	po-	2e/]	.
2D\	2D\	-zdro-	2F/	-zdro-	[2d/	-zdro-
=21	=21	=21	=21	=21	=21	=21
1AA	1AA	-wio-	1E	-wio-	2d/]	.
.	.	.	.	.	2c#/	-wio-
=22	=22	=22	=22	=22	=22	=22
1D	1D	-na	1D	-na	2d/	-na
.	.	.	.	.	2dd\	Ma-
=23	=23	=23	=23	=23	=23	=23
[1D	1r	.	2r	.	1dd	-ry-
.	.	.	2d\	Ma-	.	.
=24	=24	=24	=24	=24	=24	=24
2D\]	2r	.	1d	-ry-	1a	-ja
2D\	2D\	Ma-	.	.	.	.
=25	=25	=25	=25	=25	=25	=25
1D	1D	-ry-	1A	-ja	2r	.
.	.	.	.	.	2a/	racz
=26	=26	=26	=26	=26	=26	=26
1AA	1AA	-ja	2r	.	2.cc\	się
.	.	.	2A/	racz	.	.
.	.	.	.	.	4b\	.
=27	=27	=27	=27	=27	=27	=27
2AA/	2r	.	2.c\	się	2a/	mo-
2C/	2C/	racz	.	.	2g/	.
.	.	.	4B\	.	.	.
=28	=28	=28	=28	=28	=28	=28
2D\	2D\	się	2A/	mo-	2f/	.
4E\	2E\	mo-	2G/	-dlić	[2e/	-dlić
4D\	.	.	.	.	.	.
=29	=29	=29	=29	=29	=29	=29
4C#/	2C#/	-dlić	2A/	za	4e/]	.
4AA/	.	.	.	.	4d/	.
2D\	2D\	za	2F/	.	[2d/	za
=30	=30	=30	=30	=30	=30	=30
1A	1AA	na-	1E	na-	2d/]	.
.	.	.	.	.	2c#/	na-
=31	=31	=31	=31	=31	=31	=31
[1D	[1D	-mi.	[1D	-mi.	[1d	-mi.
=32	=32	=32	=32	=32	=32	=32
1D]	1D]	.	1D]	.	1d]	.
*-	*-	*-	*-	*-	*-	*-
!!!GTL: Hymnbook E
!!!EFL: 22/117
!!!YEM: Creative Commons CC/BY/NC/SA 4.0
!!!ENC: Marcin Konik
!!!END: 
!!!EED: Marcin Konik
!!!EEV: 
!!!ONB: Translated from MusicXML and edited by Marcin Konik
!!!CharacterEncoding: utf-8
!!!RDF**kern: l=long note in original notation
!!!RDF**kern: i=editorial accidental
!!muse2ps: z14jc180F
